_uploads/pattern-hero-left.svg

<svg width="280" height="340" fill="none" xmlns="http://www.w3.org/2000/svg"><path fill-rule="evenodd" clip-rule="evenodd" d="M200 0h20v20h-20V0zm0 40h-20V20h20v20zm20 0v20h-20V40h20zm20-20v20h-20V20h20zm20 0h-20V0h20v20zm0 0h20v20h-20V20zM20 120H0v20h20v20H0v20h20v-20h20v20h20v20h20v20H60v20h20v20H60v20h20v-20h20v-20h20v-20h20v20h20v-20h20v-20h-20v-20h-20v20h-20v-20h-20v20H80v-20H60v-20H40v-20h20v-20H40v20H20v-20zm80 100h20v-20h-20v20zm40-20h20v20h-20v-20zm-40 20H80v20h20v-20zm80-80h20v20h-20v-20zm40 20v20h-20v-20h20zm0-20h20v20h-20v-20zm0 0v-20h-20v20h20zm-20 100h20v20h-20v-20zm0 20v20h-20v-20h20z" fill="#F1F1F1"/><path fill-rule="evenodd" clip-rule="evenodd" d="M120 0H60v60H0v60h60v60H0v160h40v-40h20V180h60v20h20v-20h-20v-60h100v20h40v20h20v-20h-20v-20h-20V60h-60V0h-60z" fill="#000"/></svg>

<svg width="280" height="340" viewBox="0 0 280 340" fill="none" xmlns="http://www.w3.org/2000/svg">
<path fill-rule="evenodd" clip-rule="evenodd" d="M200 0H220V20H200V0ZM200 40H180V20H200V40ZM220 40V60H200V40H220ZM240 20V40H220V20H240ZM260 20H240V0H260V20ZM260 20H280V40H260V20ZM20 120H0V140H20V160H0V180H20V160H40V180H60V200H80V220H60V240H80V260H60V280H80V260H100V240H120V220H140V240H160V220H180V200H160V180H140V200H120V180H100V200H80V180H60V160H40V140H60V120H40V140H20V120ZM100 220H120V200H100V220ZM140 200H160V220H140V200ZM100 220H80V240H100V220ZM180 140H200V160H180V140ZM220 160V180H200V160H220ZM220 140H240V160H220V140ZM220 140V120H200V140H220ZM200 240H220V260H200V240ZM200 260V280H180V260H200Z" fill="#F1F1F1"/>
<path fill-rule="evenodd" clip-rule="evenodd" d="M120 0H60V60H0V120H60V180H0V240V300V340H40V300H60V240V180H120V200H140V180H120V120H180H220V140H240H260V160H280V140H260V120H240V60H180V0H120Z" fill="black"/>
</svg>
